public/icons/static/sketch.svg

<svg xmlns="http://www.w3.org/2000/svg" preserveAspectRatio="xMidYMid" viewBox="0 0 256 232">
  <defs/>
  <path fill="#FDB300" d="M127.9998.0002l-72.145 7.628-55.855 74.979 128 149.055 128-149.055-55.854-74.979z"/>
  <path fill="#EB6C00" d="M0 82.6076l128 149.054-76.154-149.054zM204.1533 82.6076l-76.153 149.054 127.999-149.054z"/>
  <path fill="#FDAD00" d="M51.8463 82.6076l76.154 149.054 76.154-149.054z"/>
  <path fill="#FDD231" d="M55.8548 7.6282l-4.009 74.979 76.154-82.607zM204.1533 82.6076l-4.008-74.98-72.145-7.627z"/>
  <path fill="#FDAD00" d="M204.1542 82.6076h51.845l-55.854-74.98zM0 82.6076h51.846l4.009-74.98z"/>
  <path fill="#FEEEB7" d="M127.9998.0002l-76.154 82.607h152.308z"/>
</svg>

<svg xmlns="http://www.w3.org/2000/svg" preserveAspectRatio="xMidYMid" viewBox="0 0 256 232"><path fill="#FDB300" d="M128 0 55.855 7.628 0 82.608l128 149.054L256 82.607 200.146 7.628z"/><path fill="#EB6C00" d="m0 82.608 128 149.054L51.846 82.608zm204.153 0L128 231.662 256 82.608z"/><path fill="#FDAD00" d="M51.846 82.608 128 231.662l76.154-149.054z"/><path fill="#FDD231" d="m55.855 7.628-4.01 74.98L128 0zm148.298 74.98-4.008-74.98L128 0z"/><path fill="#FDAD00" d="M204.154 82.608H256l-55.854-74.98zM0 82.608h51.846l4.009-74.98z"/><path fill="#FEEEB7" d="M128 0 51.846 82.607h152.308z"/></svg>
